X:1
T:Title
%%score { ( 1 3 4 ) | ( 2 5 ) }
L:1/8
M:4/4
K:C
V:1 treble nm="Grand Piano"
V:3 treble 
V:4 treble 
V:2 bass 
V:5 bass 
V:1
 z4 z2[Q:1/4=100] F2 | A A2 A G F2 [EG] | A2 c2 c4 | [Fd]2 [Fd]2 cAGF |[M:7/8] D2 A2 [EG]3 | %5
[M:1/8] [FA] |[M:4/4] [G_B] [GB]2 [FA] [EG][EG]F[EG] | A2 c2 c2 c2 | c G2 c d2 B2 |[M:3/4] [Ec]6 | %10
[M:1/4] [Ec]2 |[M:4/4] [FA]cAc .A2 z c | z4 [EG]4 | [EG]_BGB .G2 z d | %14
 [CAc] [CAc]2 [CG_B] [CFA][A,C][A,CF][CEG] | A^GAG A c2 A | A G2 ^F G2 [EGc]2 | BABA G2 e2 | %18
[M:3/4] d4 [Ec]2 |[M:1/4] [Ec]2 |[M:4/4] [FA]cAc .A2 z c | z4 [EG]4 | [EG]_BGB .G2 z d | %23
 [CAc] [CAc]2 [CG_B] [CFA][A,C][A,CF][CEG] | A^GAG A c2 [FA] | [F_B] [FB]2 [Fc] [Fd]2 [Fd]2 | %26
 [Fc][Fd][Fc][CFA] [A,F]2 [CFA]2 |[M:3/4] [_B,EG]4 [A,F]2 |] %28
V:2
 z4 z2 [F,A,]2 | [F,CF] [F,CF]2 [F,CF] [F,_B,E] [F,A,]2 [C,C] | [F,CF]2 [F,A,F]2 [F,A,F]4 | %3
 [_B,,_B,]2 [D,B,]2 [F,A,F][F,CF][F,B,F][F,A,C] |[M:7/8] [G,B,]2 [G,B,F]2 [C,C]3 |[M:1/8] [C,C] | %6
[M:4/4] [C,C] [C,C]2 [C,C] [C,C][C,C][D,A,][C,C] | [F,CF]2 [F,A,F]2 [F,A,F]2 [^F,C_E]2 | %8
 [G,CE] [G,CE]2 [G,CE] [G,B,F]2 [G,DF]2 |[M:3/4][K:bass] [C,C]6 |[M:1/4] [D,C]2 | %11
[M:4/4] z[K:treble] AFA .[CF]2 z F | C, C,2 E, G,2 z G | %13
 z[K:treble] GEG[K:bass] .[G,CE]2 z[K:treble] _B | C,C,D,E, F,F,F,C, | %15
 [F,CF][F,B,F][F,CF][F,B,F] [F,CF] [F,A,F]2 [^F,C_E] | [G,CE] [G,CE]2 [G,C_E] [G,C=E]2 C,2 | %17
 [G,DF][G,CF][G,DF][G,CF] [G,B,F]2 [G,CG]2 |[M:3/4] [G,B,F]4[K:bass] [C,C]2 |[M:1/4] [D,C]2 | %20
[M:4/4] z[K:treble] AFA .[CF]2 z F | C, C,2 E, G,2 z G | %22
 z[K:treble] GEG[K:bass] .[G,CE]2 z[K:treble] _B | C,C,D,E, F,F,F,C, | %24
 [F,CF][F,B,F][F,CF][F,B,F] [F,CF] [F,A,F]2 [_E,C] | [D,_B,] [D,B,]2 [C,A,] [_B,,B,]2 [=B,,^G,]2 | %26
 [C,A,][C,_B,][C,A,]C, C,2 C,2 |[M:3/4] C,4 F,2 |] %28
V:3
 x8 | x8 | x8 | x8 |[M:7/8] x7 |[M:1/8] x |[M:4/4] x8 | x8 | x8 |[M:3/4] x6 |[M:1/4] x2 | %11
[M:4/4] z4 z .F3 | [CG_B] [CGB]2 [CFA] C2 z B | z4 z .E3 | x8 | x8 | x8 | x8 |[M:3/4] x6 | %19
[M:1/4] x2 |[M:4/4] z4 z .F3 | [CG_B] [CGB]2 [CFA] C2 z B | z4 z .E3 | x8 | x8 | x8 | x8 | %27
[M:3/4] x6 |] %28
V:4
 x8 | x8 | x8 | x8 |[M:7/8] x7 |[M:1/8] x |[M:4/4] x8 | x8 | x8 |[M:3/4] x6 |[M:1/4] x2 | %11
[M:4/4] z4 z2 A,2 | z4 z2 C2 | z4 z2 C2 | x8 | x8 | x8 | x8 |[M:3/4] x6 |[M:1/4] x2 | %20
[M:4/4] z4 z2 A,2 | z4 z2 C2 | z4 z2 C2 | x8 | x8 | x8 | x8 |[M:3/4] x6 |] %28
V:5
 x8 | x8 | x8 | x8 |[M:7/8] x7 |[M:1/8] x |[M:4/4] x8 | x8 | x8 |[M:3/4][K:bass] x6 |[M:1/4] x2 | %11
[M:4/4] [F,C]2[K:treble] [A,C]2 z2 F,2 | z4 z2 E,2 | %13
 [C,C]2[K:treble] [E,C]2[K:bass] z2 C,2[K:treble] | x8 | x8 | x8 | x8 |[M:3/4] x4[K:bass] x2 | %19
[M:1/4] x2 |[M:4/4] [F,C]2[K:treble] [A,C]2 z2 F,2 | z4 z2 E,2 | %22
 [C,C]2[K:treble] [E,C]2[K:bass] z2 C,2[K:treble] | x8 | x8 | x8 | x8 |[M:3/4] x6 |] %28

